!!!!SEGMENT: 033-1-BH-004.krn
!!!COM: Chopin, Fryderyk
!!!OTL: Mazourka No. 4
!!!OPS: Op. 33
!!!PTL: Quatre Mazourkas pour le Piano
!!!PPR: Breitkopf & Härtel
!!!PPP: Leipzig
!!!AFR: mazurka
!!!NIFC-rismID: 1001001627
!!!NIFC-shelfmark: PL-Wbfc 2449/n
**kern	**kern	**dynam
*part1	*part1	*part1
*staff2	*staff1	*
*clefF4	*clefG2	*
*k[f#c#]	*k[f#c#]	*
*b:	*b:	*
*M3/4	*M3/4	*
*	*	*
4r	([4ff#^<	p
=1	=1	=1
*ped	*	*
4BB	8ff#L]	.
.	8bbJ	.
4e 4B 4G	4ggM	.
4e 4B 4G	8ff#L	.
*Xped	*	*
.	8eeJ	.
=2	=2	=2
.	8qff#/	.
*ped	*	*
4BB	2.b)	.
4d 4B 4F#	.	.
*Xped	*	*
4d 4B 4F#	.	.
=3	=3	=3
*ped	*	*
4BB	(8cc#L	.
.	8eeJ	.
4e 4A#X 4F#	4ddM	.
*Xped	*	*
4e 4A# 4F#	4cc#	.
=4	=4	=4
.	8qdd/	.
*ped	*	*
4BB	2.b)	.
4d 4B 4F#	.	.
*Xped	*	*
4d 4B 4F#	.	.
=5	=5	=5
*ped	*	*
4CC#	(8cc#L	.
.	8bJ	.
4B 4E#X 4C#	4aM	.
*Xped	*	*
4B 4E# 4C#	4g#X	.
=6	=6	=6
*ped	*	*
(4FF#	&(8a	.
.	4cc#)&)	.
4A) 4C#	.	.
.	8r	.
*Xped	*	*
4r	([4c#^>	f
!!LO:LB:g=original
=7	=7	=7
2.r	8c#L]	.
.	8BJ	.
.	4AM	.
.	4G#X)	.
=8	=8	=8
2.r	(4A	.
.	2c#)	.
=9	=9	=9
*^	*	*
4G#X	2.C#	(4B	.
4F#	.	4A	.
4A	.	4c#	.
=10	=10	=10	=10
8G#XL	2.C#	8BML	.
8F#J	.	8AJ	.
4A	.	4c#	.
4A	.	4c#	.
=11	=11	=11	=11
4G#X	2.C#	4BM	.
4F#	.	4A#X	.
4A#X	.	4c#	.
=12	=12	=12	=12
8G#X	4C#	8BL	.
4.F#X	.	8A#XJ	.
*ped	*	*	*
.	2FF#	4f#)	.
*Xped	*	*	*
4r	.	([4ff#^<	.
*v	*v	*	*
=13	=13	=13
*ped	*	*
4BB	8ff#L]	.
.	8bbJ	.
4e 4B 4G	4ggM	.
*Xped	*	*
4e 4B 4G	8ff#L	.
.	8eeJ	.
=14	=14	=14
.	8qff#/	.
*ped	*	*
4BB	2.b)	.
4d 4B 4F#	.	.
*Xped	*	*
4d 4B 4F#	.	.
=15	=15	=15
*ped	*	*
4BB	(8cc#L	.
.	8eeJ	.
4e 4A#X 4F#	4ddM	.
*Xped	*	*
4e 4A# 4F#	4cc#	.
!!LO:LB:g=original
=16	=16	=16
.	8qdd/	.
*ped	*	*
4BB	2b)	.
4d 4B 4F#	.	.
*Xped	*	*
*	*clefF4	*
4r	(>[4D^<	.
*clefG2	*	*
=17	=17	=17
!	!LO:TX:i:b:t=sotto voce.:dur=2qe:ext=s:problem:text with extention lines	!
4fn 4B	8DL]	.
.	8GJ	.
4e 4cn	12EL	.
.	12Fn	.
.	12EJ	.
4e 4c	8DL\	.
.	8CnJ\	.
=18	=18	=18
4fn 4B 4G	8.DL	.
.	16GGJk	.
4f 4B 4G	4D	.
4e 4cn	4Cn)	.
=19	=19	=19
4fn 4B	(>8DL	.
.	8GJ	.
4e 4cn	12EL	.
.	12Fn	.
.	12EJ	.
4e 4c	8DL\	.
.	8CnJ\	.
=20	=20	=20
!	!LO:TX:t=dim. _:problem:dynamics with extention lines	!
!	!	!LO:HP:b:i:t=dim.
4fn 4B 4G	8.DL	>
.	16GGJk	.
4f 4B 4G	4D	.
4e 4cn	4Cn)	.
=21	=21	=21
4fn 4B 4G	(<8.DL	.
.	16GGJk	.
4e 4cn	4Cn	.
4f 4B 4G	8.DL	.
.	16GGJk	.
=22	=22	=22
4e 4cn	4Cn	.
4fny 4B 4G	8.DL	.
.	16GGJk	.
4e 4c	4C	.
.	.	]
*clefF4	*	*
!!LO:LB:g=original
=23	=23	=23
2.G	2.GG	.
=24	=24	=24
2.F#	2.FF#)	.
*	*clefG2	*
=25	=25	=25
*ped	*	*
4BB 4BBB	(8ff#L	.
.	8bbJ	.
4e 4B 4G	4ggM	.
4e 4B 4G	8ff#L	.
*Xped	*	*
.	8eeJ	.
=26	=26	=26
.	8qff#/	.
*ped	*	*
4BB	2.b)	.
4d 4B 4F#	.	.
*Xped	*	*
4d 4B 4F#	.	.
=27	=27	=27
*ped	*	*
4BB	(8cc#L	.
.	8eeJ	.
4e 4A#X 4F#	4ddM	.
*Xped	*	*
4e 4A# 4F#	4cc#	.
=28	=28	=28
.	8qdd/	.
*ped	*	*
4BB	2.b)	.
4d 4B 4F#	.	.
*Xped	*	*
4d 4B 4F#	.	.
=29	=29	=29
*ped	*	*
4CC#	(8cc#L	.
.	8bJ	.
4B 4E#X 4C#	4aM	.
*Xped	*	*
4B 4E# 4C#	4g#X	.
=30	=30	=30
*ped	*	*
(4FF#	&(8a	.
.	4cc#)&)	.
4A) 4C#	.	.
.	8r	.
*Xped	*	*
4r	([4c#^>	f
=31	=31	=31
2.r	8c#L]	.
.	8BJ	.
.	4AM	.
.	4G#X	.
!!LO:LB:g=original
=32	=32	=32
2.r	4A	.
.	2c#)	.
=33	=33	=33
*^	*	*
4G#X	2.C#	(<4B	.
4F#	.	4A	.
4A	.	4c#	.
=34	=34	=34	=34
8G#XL	2.C#	8BML	.
8F#J	.	8AJ	.
4A	.	4c#	.
4A	.	4c#	.
=35	=35	=35	=35
4G#X	2.C#	4BM	.
4F#	.	4A#X	.
4A#X	.	4c#	.
=36	=36	=36	=36
8G#X	4C#	8BML	.
4.F#X	.	8A#XJ	.
*ped	*	*	*
.	2FF#	4f#)	.
*Xped	*	*	*
4r	.	([4ff#^<	.
*v	*v	*	*
=37	=37	=37
*ped	*	*
4BB	8ff#L]	.
.	8bbJ	.
4e 4B 4G	4ggM	.
4e 4B 4G	8ff#L	.
*Xped	*	*
.	8eeJ	.
=38	=38	=38
.	8qff#/	.
*ped	*	*
4BB	2.b)	.
4d 4B 4F#	.	.
*Xped	*	*
4d 4B 4F#	.	.
=39	=39	=39
*ped	*	*
4BB	(8cc#L	.
.	8eeJ	.
4e 4A#X 4F#	4ddM	.
*Xped	*	*
4e 4A# 4F#	4cc#	.
=40	=40	=40
.	8qdd/	.
*ped	*	*
4BB	2b)	.
4d 4B 4F#	.	.
*Xped	*	*
*	*clefF4	*
4r	([4D^<	.
*clefG2	*	*
!!LO:PB:g=original
=41	=41	=41
!	!LO:TX:b:i:t=sotto voce.:dur=2qe:ext=s:problem:text with extention lines	!
4fn 4B	8DL]	.
.	8GJ	.
4e 4cn	12EL	.
.	12Fn	.
.	12EJ	.
4e 4c	8DL\	.
.	8CnJ\	.
=42	=42	=42
4fn 4B 4G	8.DL	.
.	16GGJk	.
4f 4B 4G	4D	.
4e 4cn	4Cn)	.
=43	=43	=43
4fn 4B	(8DL	.
.	8GJ	.
4e 4cn	12EL	.
.	12Fny	.
.	12EJ	.
4e 4c	8DL\	.
.	8CnJ\	.
=44	=44	=44
!	!LO:TX:t=dim. _:problem:dynamics with extention lines	!
!	!	!LO:HP:b:i:t=dim.
4fn 4B 4G	8.DL	>
.	16GGJk	.
4f 4B 4G	4D	.
4e 4cn	4Cn)	.
=45	=45	=45
4fn 4B 4G	(<8.DL	.
.	16GGJk	.
4e 4cn	4Cn	.
4f 4B 4G	8.DL	.
.	16GGJk	.
=46	=46	=46
4e 4cn	4Cn	.
4fn 4B 4G	8.DL	.
.	16GGJk	.
4e 4c	4Cny	]
*clefF4	*	*
!!LO:LB:g=original
=47	=47	=47
2.G	2.GG	.
=48	=48	=48
2G-X	2GG-X	.
4Fn	4FFn)	.
*	*clefG2	*
*kcancel	*kcancel	*
=49||	=49||	=49||
*k[b-e-]	*k[b-e-]	*
*ped	*	*
4BBB-	4r	f
4d 4B- 4F	(>4dd^</ 4b-\ 4f\	.
*Xped	*	*
4e- 4B- 4G-X	4ee-^< 4b- 4g-X	.
=50	=50	=50
*^	*^	*
*ped	*	*	*	*
4r	4BB-\	8gg-')	8ryy	.
.	.	16ryy	16r	.
.	.	(4ff	16ddKL	.
(2f^ 2d 2B-	4r	.	8.cc	.
.	.	4ff	16ddJk	.
*Xped	*	*	*	*
.	4F)	.	4b-)	.
.	.	16ryy	.	.
*v	*v	*	*	*
*	*v	*v	*
=51	=51	=51
*ped	*	*
4BBB-	4bb-	fz
4d 4B- 4F	(>4dd^\ 4b- 4f/	.
*Xped	*	*
4e- 4B- 4G-X	4ee-^< 4b- 4g-X	.
=52	=52	=52
*^	*^	*
*ped	*	*	*	*
4r	4BB-\	8gg-')	8ryy	.
.	.	16ryy	16r	.
.	.	(4ff	16ddKL	.
(2f^ 2d 2B-	4r	.	8.cc	.
.	.	4ff	16ddJk	.
*Xped	*	*	*	*
.	4F)	.	4b-)	.
.	.	16ryy	.	.
*v	*v	*	*	*
*	*v	*v	*
=53	=53	=53
*ped	*	*
4BBB-	4r	.
4d 4B- 4F	(4dd^<\ 4b- 4f/	.
*Xped	*	*
4e- 4B- 4G-X	4ee-^< 4b- 4g-X	.
=54	=54	=54
*^	*^	*
*ped	*	*	*	*
4r	4BB-	8gg-')	8ryy	.
.	.	16ryy	16r	.
.	.	(4ff	16ddKL	.
(2f^ 2d 2B-	4r	.	8.cc	.
.	.	4ff	16ddJk	.
*Xped	*	*	*	*
.	4F)	.	4b-)	.
.	.	16ryy	.	.
*v	*v	*	*	*
*	*v	*v	*
!!LO:LB:g=original
=55	=55	=55
*ped	*	*
4BB- 4BBB-	4bbb-^< 4bb-	.
4d 4B- 4F	(>4dd^< 4b- 4f	.
*Xped	*	*
4e- 4B- 4G-X	4ee-^< 4b- 4g-X	.
=56	=56	=56
*^	*^	*
*ped	*	*	*	*
4r	4BB-	8gg-')	8ryy	.
.	.	16ryy	16r	.
.	.	(4ff	16ddKL	.
(2f^ 2d 2B-	4r	.	8.cc	.
.	.	4ff	16ddJk	.
*Xped	*	*	*	*
.	4F)	.	4b-)	.
.	.	16ryy	.	.
*v	*v	*	*	*
*	*v	*v	*
=57	=57	=57
*ped	*	*
4EE-	4r	.
*clefG2	*	*
4g 4e- 4B-	(4gg^< 4ee- 4b-	.
4a-X 4e- 4c-X	4aa-^< 4ee- 4cc-	.
*Xped	*	*
*clefF4	*	*
=58	=58	=58
*	*^	*
*ped	*	*	*
4E-	8ccc-')	8ryy	.
.	16ryy	16r	.
.	(4bb-	16ggKL	.
4g^ 4e- 4B-	.	8.ff	.
.	4bb-	16ggJk	.
*Xped	*	*	*
4E-	.	4ee-)	.
.	16ryy	.	.
*	*v	*v	*
=59	=59	=59
*ped	*	*
*	*8va	*
4EE-	4eeee- 4eee-	.
*	*X8va	*
*clefG2	*	*
!	!LO:TX:a:i:t=loco	!
4g 4e- 4B-	(4gg^< 4ee- 4b-	.
*Xped	*	*
4a-X 4e- 4c-X	4aa-^< 4ee- 4cc-	.
*clefF4	*	*
=60	=60	=60
*	*^	*
*ped	*	*	*
4E-	8ccc-')	8ryy	.
.	16ryy	16r	.
.	(4bb-	16ggKL	.
*clefG2	*	*	*
4b- 4g 4d-	.	8.ff	.
.	4bb-	16ggJk	.
*Xped	*	*	*
*clefF4	*	*	*
4E-	.	[>4ff-)	.
.	16ryy	.	.
=61	=61	=61	=61
*ped	*	*	*
4EE-	2ff-]	4r	.
(4d-X	.	(>4gg 4b-	<
*Xped	*	*	*
4dn	4ryy	4aa-X 4cc-X	[
!!LO:LB:g=original
=62	=62	=62	=62
*	*	*^	*
4e-	4ryy	4gg/ 4ee-	[2.b-\	>
4en	4gg-X	[2dd-X	.	.
4f	4ff	.	.	]
*	*	*v	*v	*
=63	=63	=63	=63
!	!	!	!LO:HP:b=2
4f#X)	2.een)	2.cc#X] 2.a#X]	>
(4F#X	.	.	.
8qA/	.	.	.
4G	.	.	.
*	*v	*v	*
=64	=64	=64
4F#X	2.r	.
4C#X	.	.
4D)	.	]
=65||	=65||	=65||
*k[bnenf#c#]	*k[bnenf#c#]	*
*ped	*	*
4BB	(8ff#L]	p
.	8bbJ	.
4e 4B 4G	4ggM	.
4e 4B 4G	8ff#L	.
*Xped	*	*
.	8eeJ	.
=66	=66	=66
.	8qff#/	.
*ped	*	*
4BB	2.b)	.
4d 4B 4F#	.	.
*Xped	*	*
4d 4B 4F#	.	.
=67	=67	=67
*ped	*	*
4BB	(8cc#L	.
.	8eeJ	.
4e 4A#X 4F#	4ddM	.
*Xped	*	*
4e 4A# 4F#	4cc#	.
=68	=68	=68
.	8qdd/	.
*ped	*	*
4BB	2.b)	.
4d 4B 4F#	.	.
*Xped	*	*
4d 4B 4F#	.	.
=69	=69	=69
*ped	*	*
4CC#	(8cc#L	.
.	8bJ	.
4B 4E#X 4C#	4aM	.
*Xped	*	*
4B 4E# 4C#	4g#X	.
!!LO:LB:g=original
=70	=70	=70
*ped	*	*
(4FF#	&(8a	.
.	4cc#)&)	.
4A 4C#)	.	.
*Xped	*	*
.	8r	.
4r	([4c#^>	f
=71	=71	=71
2.r	8c#L]	.
.	8BJ	.
.	4AM	.
.	4G#X	.
=72	=72	=72
2.r	4A	.
.	2c#)	.
=73	=73	=73
*^	*	*
4G#X	2.C#	(4B	.
4F#	.	4A	.
4A	.	4c#	.
=74	=74	=74	=74
8G#XL	2.C#	8BML	.
8F#J	.	8AJ	.
4A	.	4c#	.
4A	.	4c#	.
=75	=75	=75	=75
4G#X	2.C#	4BM	.
4F#	.	4A#X	.
4A#X	.	4c#	.
=76	=76	=76	=76
8G#X	4C#	8BL	.
4.F#X	.	8A#XJ	.
*ped	*	*	*
.	2FF#	4f#)	.
*Xped	*	*	*
4r	.	([4ff#^<	.
*v	*v	*	*
=77	=77	=77
*ped	*	*
4BB	8ff#L]	.
.	8bbJ	.
4e 4B 4G	4ggM	.
4e 4B 4G	8ff#L	.
*Xped	*	*
.	8eeJ	.
=78	=78	=78
.	8qff#/	.
*ped	*	*
4BB	2.b)	.
4d 4B 4F#	.	.
*Xped	*	*
4d 4B 4F#	.	.
!!LO:PB:g=original
=79	=79	=79
*ped	*	*
4BB	(8cc#L	.
.	8eeJ	.
4e 4A#X 4F#	4ddM	.
*Xped	*	*
4e 4A# 4F#	4cc#	.
=80	=80	=80
.	8qdd/)	.
*ped	*	*
4BB	2b	.
4d 4B 4F#	.	.
*Xped	*	*
*	*clefF4	*
4r	([4D^<	.
*clefG2	*	*
=81	=81	=81
!	!LO:TX:b:i:t=sotto voce.	!
4fn 4B	8DL]	.
.	8F#J	.
4e 4cn	12EL	.
.	12Fn	.
.	12EJ	.
4e 4c	8D\L	.
.	8CnJ	.
=82	=82	=82
4fn 4B 4G	8.DL	.
.	16GGJk	.
4f 4B 4G	4D	.
4e 4cn	4Cn)	.
=83	=83	=83
4fn 4B	(>8DL	.
.	8GJ	.
4e 4cn	12EL	.
.	12Fn	.
.	12EJ	.
4e 4c	8D\L	.
.	8CnJ	.
=84	=84	=84
4fn 4B 4G	8.DL	.
.	16GGJk	.
4f 4B 4G	4D	.
4e 4cn	4Cn)	.
!!LO:LB:g=original
=85	=85	=85
4fn 4B 4G	(<8.DL	.
.	16GGJk	.
4e 4cn	4Cn	.
4f 4B 4G	8.DL	.
.	16GGJk	.
=86	=86	=86
4e 4cn	4Cn	.
4fn 4B 4G	8.DL	.
.	16GGJk	.
4e 4c	4C	.
*clefF4	*	*
=87	=87	=87
2.G	2.GG	.
=88	=88	=88
2.F#X	2.FF#X)	.
*	*clefG2	*
=89	=89	=89
*ped	*	*
4BB 4BBB	(8ff#L	.
.	8bbJ	.
4e 4B 4G	4ggM	.
4e 4B 4G	8ff#L	.
*Xped	*	*
.	8eeJ	.
=90	=90	=90
.	8qff#/	.
*ped	*	*
4BB	2.b)	.
4d 4B 4F#	.	.
*Xped	*	*
4d 4B 4F#	.	.
=91	=91	=91
*ped	*	*
4BB	(8cc#L	.
.	8eeJ	.
4e 4A#X 4F#	4ddM	.
*Xped	*	*
4e 4A# 4F#	4cc#	.
=92	=92	=92
.	8qdd/	.
*ped	*	*
4BB	2.b)	.
4d 4B 4F#	.	.
*Xped	*	*
4d 4B 4F#	.	.
!!LO:LB:g=original
=93	=93	=93
*ped	*	*
4CC#	(8cc#L	.
.	8bJ	.
4B 4E#X 4C#	4aM	.
*Xped	*	*
4B 4E# 4C#	4g#X	.
=94	=94	=94
*ped	*	*
(4FF#	&(8a	.
.	4cc#)&)	.
4A 4C#)	.	.
.	8r	.
*Xped	*	*
4r	([4c#^>	f
=95	=95	=95
2.r	8c#L]	.
.	8BJ	.
.	4AM	.
.	4G#X	.
=96	=96	=96
2.r	4A	.
.	2c#)	.
=97	=97	=97
*^	*	*
4G#X	2.C#	(<4B	.
4F#	.	4A	.
4A	.	4c#	.
=98	=98	=98	=98
8G#XL	2.C#	8BML	.
8F#J	.	8AJ	.
4A	.	4c#	.
4A	.	4c#	.
=99	=99	=99	=99
4G#X	2.C#	4BM	.
4F#	.	4A#X	.
4A#X	.	4c#	.
=100	=100	=100	=100
8G#X	4C#	8BML	.
4.F#X	.	8A#XJ	.
*ped	*	*	*
.	2FF#	4f#)	.
*Xped	*	*	*
4r	.	([4ff#^<	.
*v	*v	*	*
!!LO:LB:g=original
=101	=101	=101
*ped	*	*
4BB	8ff#L]	.
.	8bbJ	.
4e 4B 4G	4ggM	.
4e 4B 4G	8ff#L	.
*Xped	*	*
.	8eeJ	.
=102	=102	=102
.	8qff#/	.
*ped	*	*
4BB	2.b)	.
4d 4B 4F#	.	.
*Xped	*	*
4d 4B 4F#	.	.
=103	=103	=103
*ped	*	*
4BB	(8cc#L	.
.	8eeJ	.
4e 4A#X 4F#	4ddM	.
*Xped	*	*
4e 4A# 4F#	4cc#	.
=104	=104	=104
.	8qdd/	.
*ped	*	*
4BB	2b)	.
4d 4B 4F#	.	.
*Xped	*	*
*	*clefF4	*
4r	([4D^<	.
*clefG2	*	*
=105	=105	=105
!	!LO:TX:i:t=sotto voce.	!
4fn 4B	8DL]	.
.	8GJ	.
4e 4cn	12EL	.
.	12Fn	.
.	12EJ	.
4e 4c	8DL\	.
.	8CnJ\	.
=106	=106	=106
4fn 4B 4G	8.DL	.
.	16GGJk	.
4f 4B 4G	4D	.
4e 4cn	4Cn)	.
!!LO:LB:g=original
=107	=107	=107
4fn 4B	(8DL	.
.	8GJ	.
4e 4cn	12EL	.
.	12Fn	.
.	12EJ	.
4e 4c	8DL\	.
.	8CnJ\	.
=108	=108	=108
4fn 4B 4G	8.DL	.
.	16GGJk	.
4f 4B 4G	4D	.
4e 4cn	4Cn)	.
=109	=109	=109
4fn 4B 4G	(<8.DL	.
.	16GGJk	.
4e 4cn	4Cn	.
4f 4B 4G	8.DL	.
.	16GGJk	.
=110	=110	=110
4e 4cn	4C	.
4fn 4B 4G	8.DL	.
.	16GGJk	.
4e 4c	4C	.
*clefF4	*	*
=111	=111	=111
2.G	2.GG	.
=112	=112	=112
2G-X	2GG-X	.
4Fn	4FFn)	.
*	*clefG2	*
!!LO:PB:g=original
=113||	=113||	=113||
*k[fncnb-e-]	*k[fncnb-e-]	*
*ped	*	*
4BBB-	4r	f
4d 4B- 4F	(>4dd^ 4b- 4f	.
*Xped	*	*
4e- 4B- 4G-X	4ee-^< 4b- 4g-X	.
=114	=114	=114
*^	*^	*
*ped	*	*	*	*
4r	4BB-\	8gg-')	8ryy	.
.	.	16ryy	16r	.
.	.	(4ff	16ddKL	.
(2f^< 2d 2B-	4r	.	8.cc	.
.	.	4ff	16ddJk	.
*Xped	*	*	*	*
.	4F)	.	4b-)	.
.	.	16ryy	.	.
*v	*v	*	*	*
*	*v	*v	*
=115	=115	=115
*ped	*	*
4BBB-	4bb-	fz
4d 4B- 4F	(4dd^ 4b- 4f	.
*Xped	*	*
4e- 4B- 4G-X	4ee-^< 4b- 4g-X	.
=116	=116	=116
*^	*^	*
*ped	*	*	*	*
4r	4BB-\	8gg-')	8ryy	.
.	.	16ryy	16r	.
.	.	(4ff	16ddKL	.
(2f^< 2d 2B-	4r	.	8.cc	.
.	.	4ff	16ddJk	.
*Xped	*	*	*	*
.	4F)	.	4b-)	.
.	.	16ryy	.	.
*v	*v	*	*	*
*	*v	*v	*
=117	=117	=117
*ped	*	*
4BBB-	4r	.
4d 4B- 4F	(4dd^ 4b- 4f	.
*Xped	*	*
4e- 4B- 4G-X	4ee-^< 4b- 4g-X	.
=118	=118	=118
*^	*^	*
*ped	*	*	*	*
4r	4BB-\	8gg-')	8ryy	.
.	.	16ryy	16r	.
.	.	(4ff	16ddKL	.
(2f^< 2d 2B-	4r	.	8.cc	.
.	.	4ff	16ddJk	.
*Xped	*	*	*	*
.	4F)	.	4b-)	.
.	.	16ryy	.	.
*v	*v	*	*	*
*	*v	*v	*
=119	=119	=119
*ped	*	*
4BB- 4BBB-	4bbb-^< 4bb-	.
4d 4B- 4F	(>4dd^ 4b- 4f	.
*Xped	*	*
4e- 4B- 4G-X	4ee-^< 4b- 4g-X	.
!!LO:LB:g=original
=120	=120	=120
*^	*^	*
*ped	*	*	*	*
4r	4BB-\	8gg-X')	8ryy	.
.	.	16ryy	16r	.
.	.	(4ff	16ddKL	.
(2f^< 2d 2B-	4r	.	8.cc	.
.	.	4ff	16ddJk	.
*Xped	*	*	*	*
.	4F)	.	4b-)	.
.	.	16ryy	.	.
*v	*v	*	*	*
*	*v	*v	*
=121	=121	=121
*ped	*	*
4EE-	4r	.
*clefG2	*	*
4g 4e- 4B-	(>4gg^< 4ee- 4b-	.
*Xped	*	*
4a-X 4e- 4c-X	4aa-X^< 4ee- 4cc-X	.
*clefF4	*	*
=122	=122	=122
*	*^	*
*ped	*	*	*
4E-	8ccc-')	8ryy	.
.	16ryy	16r	.
.	(4bb-	16ggKL	.
4g^ 4e- 4B-	.	8.ff	.
.	4bb-	16ggJk	.
*Xped	*	*	*
4E-	.	4ee-)	.
.	16ryy	.	.
*	*v	*v	*
=123	=123	=123
*ped	*	*
*	*8va	*
4EE-	4eeee- 4eee-	fz
*	*X8va	*
*clefG2	*	*
!	!LO:TX:a:i:t=loco	!
4g 4e- 4B-	(>4gg 4ee- 4b-	.
*Xped	*	*
4a-X 4e- 4c-X	4aa-X 4ee- 4cc-X	.
*clefF4	*	*
=124	=124	=124
*	*^	*
*ped	*	*	*
4E-	8ccc-')	8ryy	.
.	16ryy	16r	.
.	(4bb-	16ggKL	.
*clefG2	*	*	*
4b- 4g 4d-	.	8.ff	.
.	4bb-	16ggJk	.
*Xped	*	*	*
*clefF4	*	*	*
4E-	.	[>4ff-)	.
.	16ryy	.	.
=125	=125	=125	=125
*ped	*	*	*
4EE-	2.ff-X]	4r	.
(4d-X	.	(>4gg 4b-	>
*Xped	*	*	*
4dn	.	4aa-X 4cc-X	.
=126	=126	=126	=126
*	*	*^	*
4e-	4gg/ 4ee-	4ryy	2.b-\	.
4en	4gg-X	2dd-	.	.
4f)	4ff	.	.	]
*	*	*v	*v	*
!!LO:LB:g=original
=127	=127	=127	=127
(4f#X	2.een) 2.cc#X	2.a#X	.
4F#X	.	.	.
8qA#X/	.	.	.
4G#X	.	.	.
*	*v	*v	*
=128	=128	=128
!	!	!LO:HP:b
4F#	2.r	>
4C#	.	.
4F#)	.	]
=129||	=129||	=129||
*k[bnenf#c#g#d#a#]	*k[bnenf#c#g#d#a#]	*
*ped	*	*
4BB	(8dd#L	.
.	8eeJ	.
4d# 4B 4F#	4ee#X	.
*Xped	*	*
*clefG2	*	*
4b 4d#	4ff#	.
*clefF4	*	*
=130	=130	=130
*ped	*	*
4EE	8.ff##XL	.
.	16gg#Jk	.
*clefG2	*	*
4g# 4e 4B	4.ee	.
*Xped	*	*
4r	.	.
.	8dd#)	.
*clefF4	*	*
=131	=131	=131
*ped	*	*
4FF#	(8dd#L	.
.	8cc#MJ	.
4e 4A# 4F#	4b#X	.
*Xped	*	*
4e 4A# 4F#	4cc#	.
=132	=132	=132
*ped	*	*
4FF##X	2ee^<	.
4d# 4A# 4D#	.	.
*Xped	*	*
4d# 4A# 4D#	4dd#)	.
=133	=133	=133
*ped	*	*
4GG#	(8bL	<
.	8cc#J	.
4B 4G# 4D#	4cc##X	.
*Xped	*	*
4B 4G# 4D#	4dd#	[
!!LO:LB:g=original
=134	=134	=134
*ped	*	*
4CC#	8ff#L	>
.	8eeJ	.
4e 4G#	4cc#	.
*Xped	*	*
4r	4g#sS)	]
=135	=135	=135
*ped	*	*
4C##X	(8.f##XL	.
.	16g#Jk	.
4e#X 4B 4G#	4b	.
*Xped	*	*
4e# 4A# 4G#	4a#	.
=136	=136	=136
*ped	*	*
4D#	2f##X^	.
4d# 4A# 4F##X	.	.
*Xped	*	*
!LO:N:n=3:acc=n#	!LO:N:acc=n#	!
4e 4A# 4Fn# 4C#	4f#)	.
=137	=137	=137
*ped	*	*
4BB	(8dd#L	.
.	8eeJ	.
4d# 4B 4F#	4ff#	.
*Xped	*	*
4r	4ddd#	.
=138	=138	=138
*ped	*	*
4EE	8ccc#L	.
.	8bbJ	.
*clefG2	*	*
4g# 4e 4c# 4B	4gg#	.
*Xped	*	*
4r	4ee	.
*clefF4	*	*
=139	=139	=139
*ped	*	*
4FF#	8dd#L	.
.	8cc#MJ	.
4e 4c# 4A# 4F#	4b#X	.
*Xped	*	*
4e 4c# 4A# 4F#	4cc#	.
=140	=140	=140
*ped	*	*
4FF##X	2ee	>
4d# 4A# 4D#	.	]
*Xped	*	*
4d# 4A# 4D#	4dd#)	.
=141	=141	=141
*ped	*	*
4GG#	(4.dd#	.
4d# 4B 4G# 4E#X	.	.
.	8dd#mL	.
*Xped	*	*
4r	8cc#	.
.	8bJ)	.
=142	=142	=142
*ped	*	*
4AA#	(8a#L	<
.	8dd#J	.
4d# 4A# 4F#	4ff#	.
*Xped	*	*
4d# 4A# 4F#	4bb	[
!!LO:LB:g=original
=143	=143	=143
*ped	*	*
4AA#	8aa#L	.
.	8ee#XJ	.
4c##X 4A# 4G#	4.gg#	.
4e#X 4A# 4G#	.	.
*Xped	*	*
.	8ff#	.
=144	=144	=144
*ped	*	*
4D#	4dd#^<	.
4d# 4A# 4F#	8f#L	.
*Xped	*	*
.	8ff#	.
*ped	*	*
4en 4A#X 4F# 4C#	8ee#X	.
.	8eenJ)	.
*Xped	*	*
=145	=145	=145
4BB	(8dd#L	.
.	8eeJ	.
*ped	*	*
4d# 4B 4An	4ee#X	.
*Xped	*	*
*clefG2	*	*
4an 4d# 4B	4ff#	.
*clefF4	*	*
=146	=146	=146
*ped	*	*
4EE	8.ff##XL	.
.	16gg#Jk	.
*clefG2	*	*
4g# 4e 4B	4.ee	fz
4r	.	.
*Xped	*	*
.	8dd#)	.
*clefF4	*	*
=147	=147	=147
*ped	*	*
4FF#	(8dd#L	.
.	8cc#MJ	.
4e 4A# 4F#	4b#X	.
*Xped	*	*
4e 4A# 4F#	4cc#	.
=148	=148	=148
*ped	*	*
4FF##X	2ee	>
4d# 4A# 4D#	.	]
*Xped	*	*
4d# 4A# 4D#	4dd#)	.
=149	=149	=149
*ped	*	*
4GG#	(8bL	<
.	8cc#J	.
4B 4G# 4D#	4cc##X	.
*Xped	*	*
4B 4G# 4D#	4dd#	[
=150	=150	=150
*ped	*	*
4CC#	8ff#L	>
.	8eeJ	.
4e 4G#	4cc#	.
*Xped	*	*
4r	4g#sS)	]
!!LO:PB:g=original
=151	=151	=151
*ped	*	*
4C##X	(8.f##XL	.
.	16g#Jk	.
4e#X 4B 4G#	4b	.
*Xped	*	*
4e# 4A# 4G#	4a#	.
=152	=152	=152
*ped	*	*
4D#	2f##X	>
4d# 4A# 4F##X	.	]
*Xped	*	*
!LO:N:n=3:acc=n#	!LO:N:acc=n#	!
4e 4A# 4Fn# 4C#	4fn#)	.
=153	=153	=153
*ped	*	*
4BB	(8dd#L	<
.	8eeJ	.
4d# 4B 4F#	4ff#	.
*Xped	*	*
4r	4ddd#	[
=154	=154	=154
*ped	*	*
4EE	8ccc#L	>
.	8bbJ	.
*clefG2	*	*
4g# 4e 4B	4gg#	.
*Xped	*	*
4r	4ee	]
*clefF4	*	*
=155	=155	=155
*ped	*	*
4FF#	8dd#L	.
.	8cc#MJ	.
4e 4A# 4F#	4b#X	.
*Xped	*	*
4e 4A# 4F#	4cc#	.
=156	=156	=156
*ped	*	*
4FF##X	2ee	>
4d# 4A# 4D#	.	.
*Xped	*	*
4d# 4A# 4D#	4dd#)	]
=157	=157	=157
*ped	*	*
4GG#	(4.dd#	.
4d# 4B 4G# 4E#X	.	.
.	8dd#mL	.
*Xped	*	*
4r	8cc#	.
.	8bJ)	.
=158	=158	=158
*ped	*	*
4AA#	(8a#L	<
.	8dd#J	.
4d# 4A# 4F#	4ff#	.
*Xped	*	*
4d# 4A# 4F#	4bb	[
!!LO:LB:g=original
=159	=159	=159
*ped	*	*
4AA#	8aa#L	.
.	8ee#XJ	.
4c##X 4A# 4G#	4.gg#	.
4e#X 4A# 4G#	.	.
*Xped	*	*
.	8ff#	.
=160	=160	=160
*ped	*	*
4D#	2dd#	.
4d# 4A# 4F#	.	.
*Xped	*	*
4f# 4A# 4F#	4ff#)	.
*clefG2	*	*
=161	=161	=161
*ped	*	*
8eeL\ 8a#X	(8.ggg#L 8.gg#	f>
16r	.	.
(16f#Jk	16fff#Jk 16ff#	.
*clefF4	*	*
4F#)	4eee 4ee)	]
*Xped	*	*
(4FF#	(<4a#^> 4e	[
=162	=162	=162
*ped	*	*
8BBL)	8b/L 8d#/)	.
16r	16r	.
(16F#Jk	(>16cc#Jk 16f#	.
4d# 4B)	4dd# 4b)	.
*Xped	*	*
*clefG2	*	*
(4dd#^ 4b	(4fff# 4ff#	.
=163	=163	=163
*ped	*	*
8eeL)\ 8a#	8.ggg#L 8.gg#	>
16r	.	.
(16f#Jk	16fff#Jk 16ff#	.
*clefF4	*	*
4F#)	4eee 4ee)	]
*Xped	*	*
(4FF#	(<4a#^> 4e	.
=164	=164	=164
*ped	*	*
8BBL)	8b/L 8d#)/	.
16r	16r	.
(16F#Jk	(16cc#Jk 16f#	.
4d# 4B)	4dd# 4b)	.
*Xped	*	*
4r	(4ff#^< 4dd#	.
=165	=165	=165
*ped	*	*
8F#L/	8eee'L 8ccc#)	.
16r	16r	.
*clefG2	*	*
(16cc#k	(16aa#k 16ff#	.
8.g# 8.e)	8.gg# 8.ee)	.
(16cc#Jk	(16aa#Jk 16ff#	.
4g# 4e)	4gg#^< 4ee)	.
*Xped	*	*
*clefF4	*	*
!!LO:LB:g=original
=166	=166	=166
*ped	*	*
8FF#L	8ddd#'L 8bb	.
16r	16r	.
*clefG2	*	*
(16bk	(16gg#k 16ee	.
8.f# 8.d#)	8.ff# 8.dd#)	.
16bJk	(16gg#Jk 16ee	.
*Xped	*	*
4f# 4d#	4ff#^< 4dd#)	.
*clefF4	*	*
=167	=167	=167
*ped	*	*
8FF#L	8ccc#'L 8aa#	.
16r	16r	.
*clefG2	*	*
(16a#k	(16ff#k 16dd#	.
8.e 8.c#)	8.ee 8.cc#)	.
(16a#Jk	(16ff#Jk 16dd#	.
*Xped	*	*
4e 4c#)	4ee ^<4cc#)	.
*clefF4	*	*
=168	=168	=168
*^	*	*
*ped	*	*	*
4BB'	4ryy	(8dd#L 8b	.
.	.	16r	.
.	.	16eeJk 16cc#	.
*Xped	*	*	*
4e#X	2B	4gg#^< 4cc##X	.
4f#	.	4ff# 4dd#)	.
*v	*v	*	*
*clefG2	*	*
=169	=169	=169
*ped	*	*
8eeL\ 8a#	(8.ggg#L 8.gg#	>
16r	.	.
(16f#Jk	16fff#Jk 16ff#	.
*clefF4	*	*
4F#)	4eee 4ee)	]
*Xped	*	*
4FF#	(4a#^> 4e	.
=170	=170	=170
*ped	*	*
8BBL'	8b/L 8d#/)	.
16r	16r	.
(16F#Jk	(16cc#Jk 16f#	.
4d# 4B)	4dd# 4b)	.
*Xped	*	*
*clefG2	*	*
(4dd#^ 4b	(4fff#^< 4ff#	.
=171	=171	=171
*ped	*	*
8eeL\ 8a#)	8.ggg#L 8.gg#	.
16r	.	.
(16f#Jk	16fff#Jk 16ff#	.
*clefF4	*	*
4F#)	4eee 4ee)	.
*Xped	*	*
(>4FF#/	4a#^> 4e	.
!!LO:LB:g=original
=172	=172	=172
*ped	*	*
8BBL)	8b/L 8e/	.
16r	16r	.
(16F#Jk	(16cc#Jk 16f#	.
4d# 4B)	4dd# 4b)	.
*Xped	*	*
4r	4ff#^ 4dd#	.
=173	=173	=173
*ped	*	*
8EL/	8eee'L	f
16r	16r	.
*clefG2	*	*
(16cc#k	(16aa#k 16ff#	.
8.g# 8.e)	8.gg# 8.ee)	.
16cc#Jk	(16aa#Jk 16ff#	.
*Xped	*	*
(4g# 4e	4gg#^< 4ee)	.
*clefF4	*	*
=174	=174	=174
*ped	*	*
8FF#L)	8ddd#L 8bb	.
16r	16r	.
*clefG2	*	*
(16bk	(16gg#k 16ee	.
8.f# 8.d#)	8.ff# 8.dd#)	.
16bJk	(16gg#Jk 16ee	.
*Xped	*	*
(4f# 4d#	4ff#^< 4dd#)	.
*clefF4	*	*
=175	=175	=175
*ped	*	*
8FF#'L)	8ccc#L 8aa#	.
16r	16r	.
*clefG2	*	*
(16a#k	(16ff#k 16dd#	.
8.e 8.c#)	8.ee 8.cc#)	.
(16a#Jk	(16ff#Jk 16dd#	.
*Xped	*	*
4e 4c#)	4ee^< 4cc#)	.
*clefF4	*	*
=176	=176	=176
8r	2.r	.
16r	.	.
(16G#KL	.	pp
8.F#)	.	.
(16G#Jk	.	.
4F#)	.	.
=177	=177	=177
(8.G#L	2.r	.
16F#Jk	.	.
4E	.	.
4FF#	.	.
!!LO:LB:g=original
=178	=178	=178
8.BBL	2.r	.
16C#Jk	.	.
4D#	.	.
4F#	.	.
=179	=179	=179
8.G#L	2.r	.
16F#Jk	.	.
4E	.	.
4FF#	.	.
=180	=180	=180
8.BBL	2.r	.
16C#Jk	.	.
4D#	.	.
4F#)	.	.
=181	=181	=181
*^	*	*
!	!LO:N:vis=2.	!	!
2.e	8.eL	2.r	.
.	(>16A#Xk	.	.
.	8.G#	.	.
.	16A#Jk	.	.
.	4G#)	.	.
=182	=182	=182	=182
!	!LO:N:vis=2.	!	!
2.d#	8.d#L	2.r	.
.	(>16G#k	.	.
.	8.F#	.	.
.	16G#Jk	.	.
.	4F#)	.	.
=183	=183	=183	=183
!	!LO:N:vis=2.	!	!
2.c#	8.c#L	2.r	.
.	16F#k	.	.
.	8.E	.	.
.	16F#Jk	.	.
.	4E	.	.
*v	*v	*	*
=184	=184	=184
8.D#L	2.r	.
16EJk	.	.
4.G#	.	.
8F#	.	.
=185	=185	=185
8.G#L	2.r	.
16F#Jk	.	.
4E	.	.
4FF#	.	.
!!LO:PB:g=original
=186	=186	=186
8.BBL	2.r	.
16C#Jk	.	.
4D#	.	.
4F#	.	.
=187	=187	=187
8.GnL	2.r	.
16F#Jk	.	.
4E	.	.
4FF#	.	.
=188	=188	=188
8.BBL	2.r	.
16C#Jk	.	.
4Dn	.	.
4F#	.	.
=189	=189	=189
8GnL	2.r	.
8F#J	.	.
4E	.	.
4GGn	.	.
=190	=190	=190
8GnL	2.r	.
8F#J	.	.
4E	.	.
4GG#X	.	.
=191	=191	=191
8.GnL	2.r	.
16F#Jk	.	.
4E	.	.
4AA#	.	.
=192	=192	=192
8.GnL	2.r	.
16F#Jk	.	.
4E	.	.
4AA#X	.	.
*clefF4	*	*
!!LO:LB:g=original
=193||	=193||	=193||
*k[gndnanf#c#]	*k[gndnanf#c#]	*
*ped	*	*
4BB	(8ff#L	.
.	8bbJ	.
4e 4B 4G	4ggM	.
4e 4B 4G	8ff#L	.
*Xped	*	*
.	8eeJ	.
=194	=194	=194
.	8qff#/	.
*ped	*	*
4BB	2.b)	.
4d 4B 4F#	.	.
*Xped	*	*
4d 4B 4F#	.	.
=195	=195	=195
*ped	*	*
4BB	(8cc#L	.
.	8eeJ	.
4e 4A#X 4F#	4ddM	.
*Xped	*	*
4e 4A# 4F#	4cc#	.
=196	=196	=196
.	8qdd/	.
*ped	*	*
4BB	2.b)	.
4d 4B 4F#	.	.
*Xped	*	*
4d 4B 4F#	.	.
=197	=197	=197
*ped	*	*
4CC#	(8cc#L	.
.	8bJ	.
4B 4E#X 4C#	4aM	.
*Xped	*	*
4B 4E# 4C#	4g#X	.
=198	=198	=198
*ped	*	*
(4FF#	&(8a	.
.	4cc#)&)	.
4A 4C#)	.	.
*Xped	*	*
.	8r	.
4r	([4c#^>	f
=199	=199	=199
2.r	8c#L]	.
.	8BJ	.
.	4AM	.
.	4G#X	.
!!LO:LB:g=original
=200	=200	=200
2.r	4A	.
.	2c#)	.
=201	=201	=201
*^	*	*
4G#X	2.C#	(4B	.
4F#	.	4A	.
4G#	.	4c#	.
=202	=202	=202	=202
8G#XL	2.C#	8BML	.
8F#J	.	8AJ	.
4A	.	4c#	.
4A	.	4c#	.
=203	=203	=203	=203
4G#X	2.C#	4BM	.
4F#	.	4A#X	.
4A#X	.	4c#	.
=204	=204	=204	=204
8G#X	4C#	8BML	.
4.F#	.	8A#XJ	.
*ped	*	*	*
.	2FF#	4f#)	.
*Xped	*	*	*
4r	.	([4ff#^<	.
*v	*v	*	*
=205	=205	=205
*ped	*	*
4BB	8ff#L]	.
.	8bbJ	.
4e 4B 4G	4ggM	.
*Xped	*	*
4e 4B 4G	8ff#L	.
.	8eeJ	.
=206	=206	=206
.	8qff#/	.
*ped	*	*
4BB	2.b)	.
4d 4B 4F#	.	.
*Xped	*	*
4d 4B 4F#	.	.
=207	=207	=207
*ped	*	*
4BB	(8cc#L	.
.	8eeJ	.
4e 4A#X 4F#	4ddM	.
*Xped	*	*
4e 4A# 4F#	4cc#	.
!!LO:LB:g=original
=208	=208	=208
.	8qdd/	.
*ped	*	*
4BB	2b)	.
4d 4B 4F#	.	.
*Xped	*	*
*	*clefF4	*
4r	([4D^<	.
*clefG2	*	*
=209	=209	=209
!	!LO:TX:i:t=sotto voce:dur=2qe:ext=s:problem:text with extention lines	!
4fn 4B	8DL]	.
.	8GJ	.
4e 4cn	12EL	.
.	12Fn	.
.	12EJ	.
4e 4c	8D\L	.
.	8CnJ	.
=210	=210	=210
4fn 4B 4G	8.DL	.
.	16GGJk	.
4f 4B 4G	4D	.
4e 4cn	4Cn)	.
=211	=211	=211
4fn 4B	(>8DL	.
.	8GJ	.
4e 4cn	12EL	.
.	12Fn	.
.	12EJ	.
4e 4c	8D\L	.
.	8CnJ	.
=212	=212	=212
!	!LO:TX:t=dim. _:problem:dynamics with extention lines	!
!	!	!LO:HP:b:i:t=dim.
4fn 4B 4G	8.DL	>
.	16GGJk	.
4f 4B 4G	4D	.
4e 4cn	4Cn)	.
=213	=213	=213
4fn 4B 4G	8.DL	.
.	16GGJk	.
4e 4cn	4Cn	.
4f 4B 4G	8.DL	.
.	16GGJk	.
=214	=214	=214
4e 4cn	4Cn	.
4fn 4B 4G	8.DL	.
.	16GGJk	.
4e 4c	4C	]
!!LO:LB:g=original
=215	=215	=215
4fn 4B 4G	8.DL	.
.	16GGJk	.
4f 4B 4G	4D	.
4e 4cn	4Cn	.
=216	=216	=216
4fn 4B 4G	8.DL	.
.	16GGJk	.
4f 4B 4G	4D	.
4e 4cn	4Cn	.
!!LO:LB:g=original
=217	=217	=217
*ped	*	*
*clefF4	*	*
2.BB	2.r	.
=218	=218	=218
2.EE	2.r	.
=219	=219	=219
2.BB	2.r	.
=220	=220	=220
2.EE	2.r	.
=221	=221	=221
[2.BB	2.r	.
=222	=222	=222
2.BB]	2.r	.
*Xped	*	*
*	*clefG2	*
=223	=223	=223
2.r	(>4g	.
.	4.c#^	.
.	8B	.
=224	=224	=224
4FF#\	8.c#<L 8.A#X< 8.E<	.
.	[>16F#<Jk	.
4FF#\	4c#</ 4A#</ 4F#</] 4E</	.
!LO:TX:b:Bi:t=FINE.	!	!
4BB\ 4BBB	4B</ 4F#</ 4D</)	.
*	*	*
==	==	==
*-	*-	*-
!!title: @{OTL}; @{OPS} @{ONM} publisher: @{PPR}
!!!RDF**kern: > = above
!!!RDF**kern: < = below 
!!!ENC: Marta Lawrence
!!!END: 2018-06-11
!!!EED: Leszek Kubiak
!!!EST: revision finished 2018-06-14
!!!EED2: Jacek Iwaszko
!!!EST2: revision finished 2018-10-23
!!!EED3: Zofia Niedbalska
!!!EST3: revision finished 2018-12-27
!!!rism-genre: Mazurka
!!!rism-key: B minor
!!!rism-opus: op.  33, no. 4
!!!rism-title: Mazurka in B minor op.  33, no. 4
!!!rism-permalink: https://opac.rism.info/search?id=1001001627&View=rism
!!!rism-773a-OPR: 1001001565
!!!rism-parent-permalink: https://opac.rism.info/search?id=1001001565&View=rism
